X: 3021
T: Lady Charlotte Bruce's Favourite
C: by Nath. Gow.
%R: air, waltz, jig
B: Niel Gow & Sons "A Third Collection of Strathspey Reels, etc." v.3 p.2 #1
Z: 2022 John Chambers <jc:trillian.mit.edu>
M: 6/8
L: 1/8
Q: "Slow"
K: F
% - - - - - - - - - -
% Voice 1 not reformatted this time.
V: 1 staves=3
B |\
A2c (A/B/c).A | TB2d G2B | A2B {d}cAF | TE2F G2B ||\
A2c (A/B/c).A | TB2d GAB | (cA).F (BG).E | [F3C3A,3] [F2C2A,2] :|
f |\
(e/f/g)e f2c | Td2e f2a | {a}gfg a2f | Te2f g2a ||\
(e/f/g)e f2c | {Bc}d2B Acf | (cA)F (BG)E | [F3C3A,3] [F2C2A,2] f ||
(e/f/g)e f2c | Td2e f2a | {a}gfg a2f | Te2f (ga)b ||\
afc Td>ef | {d}cBA TB>cd | (cA).F (BG).E | [F3C3A,3] [F2C2A,2] |]
% - - - - - - - - - -
% Voice 2 preserves the staff layout in the book.
V: 2 clef=bass middle=d
z | (fa)c' (fa)c' | fbd' egc' | fac' fac' | cgc' cgc' || fac' fac' | fbd' egc' | fac' cgc' | fcA F2 |
z | gbc' fac' | b2g a2f | egc' fac' | cgc' cgc' || gbc' fac' | fbd' fac' | fac' cgc' | fcA F2 z ||
    gbc' fac' | b2g a2f | egc' fac' | cgc' c3 || [a3f'3] [b3f'3] | [f3a3] [f3b3] | c'3 c3 | fcA F2 |]
% - - - - - - - - - -
% Voice 3 preserves the staff layout in the book.
V: 3 clef=bass middle=d
z | f3 F3 | B3 c3 | f3 F3 | c3 c'3 || f3 F3 | B3 b3 | c'3 c3 | fcA F2 :|
z | c'2b a2f | B2c d3  | e3  f2d | c3 C3  || c2B A2f | B3 f3 | c3  C3 | FAc F2z ||
    C2B  A2F | B2G A2f | e2c f2F | c3 c'3 || f3  b3  | a3 b3 | c'3 c3 | fcA F2 |]


